cssgg/arrow-long-right-r.svg

<svg
  width="24"
  height="24"
  viewBox="0 0 24 24"
  fill="none"
  xmlns="http://www.w3.org/2000/svg"
>
  <path
    fill-rule="evenodd"
    clip-rule="evenodd"
    d="M19.3514 7.72525L23.6012 11.9607L19.3655 16.2105L17.9489 14.7987L19.7633 12.9781L7.89744 13.0188L4.64151 16.2748L0.398865 12.0321L4.64151 7.78947L7.87093 11.0189L19.782 10.9781L17.9395 9.14185L19.3514 7.72525ZM4.64151 13.4463L6.05572 12.0321L4.64151 10.6179L3.22729 12.0321L4.64151 13.4463Z"
    fill="currentColor"
  />
</svg>

<svg viewBox="0 0 24 24" xmlns="http://www.w3.org/2000/svg"><path fill-rule="evenodd" d="M19.35 7.72l4.24 4.23 -4.24 4.24 -1.42-1.42 1.81-1.83 -11.87.04 -3.26 3.25 -4.25-4.25L4.6 7.73l3.22 3.22 11.91-.05 -1.85-1.84 1.41-1.42ZM4.64 13.44l1.41-1.42 -1.42-1.42 -1.42 1.41 1.41 1.41Z"/></svg>
